X:575
T:An Suisin Ban (C)
C:Chieftains
R:hornpipe
H:
Z:
M:4/4
K:C
e|:"F"fAAG ABcA|"C"GA (3cde "F"f2 fd|"C"edcA G2 Ac|"D"d2 de "G"dGcd|
"C"edcA "G"GAGA|1"F"c2 cd "C"c2 (3cde:|2"F"c2 cd "C"c2 eg||
|:"F"a2 ag abc'a|"C"gece "F"f2 fd|"C"edcA G2 Ac|"D"d2 de "G"dGcd|
"C"edcA "G"GAGA|1"F"c2 cd "C"c2 eg:|2"F"c2 cd "C"c2 (3cde||
